; generated by PrusaSlicer 2.7.1+MacOS-arm64 on 2024-02-04 at 16:46:18 UTC

; 

; external perimeters extrusion width = 0.42mm
; perimeters extrusion width = 0.44mm
; infill extrusion width = 0.44mm
; solid infill extrusion width = 0.44mm
; top infill extrusion width = 0.40mm
; support material extrusion width = 0.36mm
; first layer extrusion width = 0.42mm

M201 X500 Y500 Z100 E5000 ; sets maximum accelerations, mm/sec^2
M203 X500 Y500 Z10 E60 ; sets maximum feedrates, mm / sec
M204 S500 T1000 ; sets acceleration (S) and retract acceleration (R), mm/sec^2
M205 X8.00 Y8.00 Z0.40 E5.00 ; sets the jerk limits, mm/sec
M205 S0 T0 ; sets the minimum extruding and travel feed rate, mm/sec

; printing object saddle-25-32.stl id:0 copy 0
; stop printing object saddle-25-32.stl id:0 copy 0

;TYPE:Custom
G90 ; use absolute coordinates
M83 ; extruder relative mode
M104 S150 ; set temporary nozzle temp to prevent oozing during homing
M140 S60 ; set final bed temp
G4 S30 ; allow partial nozzle warmup
G28 ; home all axis and restore leveling
G1 Z50 F240
G1 X2.0 Y10 F3000
M104 S210 ; set final nozzle temp
M190 S60 ; wait for bed temp to stabilize
M109 S210 ; wait for nozzle temp to stabilize
G1 Z0.28 F240
G92 E0
G1 X2.0 Y140 E10 F1500 ; prime the nozzle
G1 X2.3 Y140 F5000
G92 E0
G1 X2.3 Y10 E10 F1200 ; prime the nozzle
G92 E0
G21 ; set units to millimeters
G90 ; use absolute coordinates
M83 ; use relative distances for extrusion
; Filament gcode
M107
;LAYER_CHANGE
;Z:0.2
;HEIGHT:0.2
;BEFORE_LAYER_CHANGE
G92 E0
;0.2


G1 E-.8 F1800
G1 Z.2 F9000
;AFTER_LAYER_CHANGE
;0.2
G1 X97.245 Y97.071
G1 Z.2
G1 E.8 F1800
M204 S500
;TYPE:Skirt/Brim
;WIDTH:0.42
G1 F1200
G1 X98.847 Y95.667 E.06679
G1 X100.012 Y94.831 E.04496
G1 X101.857 Y93.766 E.06679
G1 X103.163 Y93.174 E.04496
G1 X105.181 Y92.489 E.06682
G1 X106.577 Y92.164 E.04494
G1 X108.69 Y91.886 E.06682
G1 X110.414 Y91.848 E.05407
G1 X112.249 Y91.978 E.05768
G1 X113.664 Y92.212 E.04497
G1 X115.721 Y92.763 E.06677
G1 X117.063 Y93.268 E.04496
G1 X118.974 Y94.211 E.06682
G1 X120.192 Y94.968 E.04496
G1 X121.882 Y96.265 E.0668
G1 X122.929 Y97.245 E.04496
G1 X124.333 Y98.847 E.06679
G1 X125.169 Y100.012 E.04496
G1 X126.234 Y101.857 E.06679
G1 X126.826 Y103.163 E.04496
G1 X127.511 Y105.181 E.06682
G1 X127.836 Y106.577 E.04494
G1 X128.114 Y108.69 E.06682
G1 X128.161 Y110.123 E.04495
G1 X128.022 Y112.249 E.0668
G1 X127.788 Y113.664 E.04497
G1 X127.237 Y115.721 E.06677
G1 X126.732 Y117.063 E.04496
G1 X125.789 Y118.974 E.06682
G1 X125.032 Y120.192 E.04496
G1 X123.735 Y121.882 E.0668
G1 X122.755 Y122.929 E.04496
G1 X121.153 Y124.333 E.06679
G1 X119.988 Y125.169 E.04496
G1 X118.143 Y126.234 E.06679
G1 X116.837 Y126.826 E.04496
G1 X114.819 Y127.511 E.06682
G1 X113.423 Y127.836 E.04494
G1 X111.31 Y128.114 E.06682
G1 X109.877 Y128.161 E.04495
G1 X107.751 Y128.022 E.0668
G1 X106.336 Y127.788 E.04497
G1 X104.279 Y127.237 E.06677
G1 X102.937 Y126.732 E.04496
G1 X101.026 Y125.789 E.06682
G1 X99.808 Y125.032 E.04496
G1 X98.118 Y123.735 E.0668
G1 X97.071 Y122.755 E.04496
G1 X95.667 Y121.153 E.06679
G1 X94.831 Y119.988 E.04496
G1 X93.766 Y118.143 E.06679
G1 X93.174 Y116.837 E.04496
G1 X92.489 Y114.819 E.06682
G1 X92.164 Y113.423 E.04494
G1 X91.886 Y111.31 E.06682
G1 X91.839 Y109.877 E.04495
G1 X91.978 Y107.751 E.0668
G1 X92.212 Y106.336 E.04497
G1 X92.763 Y104.279 E.06677
G1 X93.268 Y102.937 E.04496
G1 X94.211 Y101.026 E.06682
G1 X94.968 Y99.808 E.04496
G1 X96.265 Y98.118 E.0668
G1 X97.204 Y97.115 E.04308
G1 X97.479 Y97.372 F9000
G1 F1200
G1 X97.503 Y97.346 E.00111
G1 X99.086 Y95.958 E.06601
G1 X100.211 Y95.151 E.04341
G1 X102.035 Y94.099 E.06602
G1 X103.296 Y93.527 E.04342
G1 X105.29 Y92.85 E.06603
G1 X106.639 Y92.536 E.04343
G1 X108.727 Y92.261 E.06603
G1 X110.402 Y92.225 E.05253
G1 X112.212 Y92.353 E.05689
G1 X113.578 Y92.579 E.04341
G1 X115.612 Y93.124 E.06602
G1 X116.908 Y93.612 E.04342
G1 X118.796 Y94.543 E.066
G1 X119.972 Y95.274 E.04342
G1 X121.643 Y96.556 E.06604
G1 X122.654 Y97.503 E.04343
G1 X124.042 Y99.086 E.06601
G1 X124.849 Y100.211 E.04341
G1 X125.901 Y102.035 E.06602
G1 X126.473 Y103.296 E.04342
G1 X127.15 Y105.29 E.06603
G1 X127.464 Y106.639 E.04343
G1 X127.739 Y108.727 E.06603
G1 X127.784 Y110.11 E.04339
G1 X127.647 Y112.212 E.06605
G1 X127.421 Y113.578 E.04341
G1 X126.876 Y115.612 E.06602
G1 X126.388 Y116.908 E.04342
G1 X125.457 Y118.796 E.066
G1 X124.726 Y119.972 E.04342
G1 X123.444 Y121.643 E.06604
G1 X122.497 Y122.654 E.04343
G1 X120.914 Y124.042 E.06601
G1 X119.789 Y124.849 E.04341
G1 X117.965 Y125.901 E.06602
G1 X116.704 Y126.473 E.04342
G1 X114.71 Y127.15 E.06603
G1 X113.361 Y127.464 E.04343
G1 X111.273 Y127.739 E.06603
G1 X109.89 Y127.784 E.04339
G1 X107.788 Y127.647 E.06605
G1 X106.422 Y127.421 E.04341
G1 X104.388 Y126.876 E.06602
G1 X103.092 Y126.388 E.04342
G1 X101.204 Y125.457 E.066
G1 X100.028 Y124.726 E.04342
G1 X98.357 Y123.444 E.06604
G1 X97.346 Y122.497 E.04343
G1 X95.958 Y120.914 E.06601
G1 X95.151 Y119.789 E.04341
G1 X94.099 Y117.965 E.06602
G1 X93.527 Y116.704 E.04342
G1 X92.85 Y114.71 E.06603
G1 X92.536 Y113.361 E.04343
G1 X92.261 Y111.273 E.06603
G1 X92.216 Y109.89 E.04339
G1 X92.353 Y107.788 E.06605
G1 X92.579 Y106.422 E.04341
G1 X93.124 Y104.388 E.06602
G1 X93.612 Y103.092 E.04342
G1 X94.543 Y101.204 E.066
G1 X95.274 Y100.028 E.04342
G1 X96.556 Y98.357 E.06604
G1 X97.438 Y97.416 E.04044
; printing object saddle-25-32.stl id:0 copy 0
;WIPE_START
G1 F7200
G1 X97.479 Y97.372 E-.01428
G1 X97.503 Y97.346 E-.0084
G1 X99.086 Y95.958 E-.50002
G1 X100.035 Y95.278 E-.2773
;WIPE_END
G1 X116.9 Y103.1 F9000
G1 E.8 F1800
;TYPE:Support material
G1 F1200
G1 X118.217 Y103.1 E.04129
G1 X118.217 Y116.9 E.43269
G1 X116.9 Y116.9 E.04129
G1 X116.9 Y118.217 E.04129
G1 X103.1 Y118.217 E.43269
G1 X103.1 Y116.9 E.04129
G1 X101.783 Y116.9 E.04129
G1 X101.783 Y103.1 E.43269
G1 X103.1 Y103.1 E.04129
G1 X103.1 Y101.783 E.04129
G1 X116.9 Y101.783 E.43269
G1 X116.9 Y103.044 E.03954
G1 X117.542 Y116.73 F9000
G1 F1200
G1 X117.542 Y103.44 E.4167
G1 X117.123 Y103.44 E.01314
G1 X117.123 Y116.56 E.41137
G1 X116.704 Y116.56 E.01314
G1 X116.704 Y103.44 E.41137
G1 X116.56 Y103.44 E.00452
G1 X116.56 Y102.123 E.04129
G1 X116.285 Y102.123 E.00862
G1 X116.285 Y117.877 E.49396
G1 X115.866 Y117.877 E.01314
G1 X115.866 Y102.123 E.49396
G1 X115.447 Y102.123 E.01314
G1 X115.447 Y117.877 E.49396
G1 X115.028 Y117.877 E.01314
G1 X115.028 Y102.123 E.49396
G1 X114.609 Y102.123 E.01314
G1 X114.609 Y117.877 E.49396
G1 X114.19 Y117.877 E.01314
G1 X114.19 Y102.123 E.49396
G1 X113.771 Y102.123 E.01314
G1 X113.771 Y117.877 E.49396
G1 X113.352 Y117.877 E.01314
G1 X113.352 Y102.123 E.49396
G1 X112.933 Y102.123 E.01314
G1 X112.933 Y117.877 E.49396
G1 X112.514 Y117.877 E.01314
G1 X112.514 Y102.123 E.49396
G1 X112.095 Y102.123 E.01314
G1 X112.095 Y117.877 E.49396
G1 X111.676 Y117.877 E.01314
G1 X111.676 Y102.123 E.49396
G1 X111.257 Y102.123 E.01314
G1 X111.257 Y117.877 E.49396
G1 X110.838 Y117.877 E.01314
G1 X110.838 Y102.123 E.49396
G1 X110.419 Y102.123 E.01314
G1 X110.419 Y117.877 E.49396
G1 X110 Y117.877 E.01314
G1 X110 Y102.123 E.49396
G1 X109.581 Y102.123 E.01314
G1 X109.581 Y117.877 E.49396
G1 X109.162 Y117.877 E.01314
G1 X109.162 Y102.123 E.49396
G1 X108.743 Y102.123 E.01314
G1 X108.743 Y117.877 E.49396
G1 X108.324 Y117.877 E.01314
G1 X108.324 Y102.123 E.49396
G1 X107.905 Y102.123 E.01314
G1 X107.905 Y117.877 E.49396
G1 X107.486 Y117.877 E.01314
G1 X107.486 Y102.123 E.49396
G1 X107.067 Y102.123 E.01314
G1 X107.067 Y117.877 E.49396
G1 X106.648 Y117.877 E.01314
G1 X106.648 Y102.123 E.49396
G1 X106.229 Y102.123 E.01314
G1 X106.229 Y117.877 E.49396
G1 X105.81 Y117.877 E.01314
G1 X105.81 Y102.123 E.49396
G1 X105.391 Y102.123 E.01314
G1 X105.391 Y117.877 E.49396
G1 X104.972 Y117.877 E.01314
G1 X104.972 Y102.123 E.49396
G1 X104.553 Y102.123 E.01314
G1 X104.553 Y117.877 E.49396
G1 X104.134 Y117.877 E.01314
G1 X104.134 Y102.123 E.49396
G1 X103.715 Y102.123 E.01314
G1 X103.715 Y117.877 E.49396
G1 X103.44 Y117.877 E.00862
G1 X103.44 Y116.56 E.04129
G1 X103.296 Y116.56 E.00452
G1 X103.296 Y103.44 E.41137
G1 X102.877 Y103.44 E.01314
G1 X102.877 Y116.56 E.41137
G1 X102.458 Y116.56 E.01314
G1 X102.458 Y103.27 E.4167
;WIPE_START
G1 F7200
G1 X102.458 Y106.638 E-.8
;WIPE_END
G1 X99.679 Y100.932 F9000
G1 E.8 F1800
;TYPE:External perimeter
;WIDTH:0.419999
G1 F1200
G1 X100.31 Y100.263 E.02883
G1 X101.029 Y99.599 E.03069
G1 X101.793 Y98.988 E.03067
G1 X102.598 Y98.433 E.03066
G1 X103.44 Y97.937 E.03064
G1 X104.298 Y97.508 E.03008
G1 X104.754 Y97.303 E.01568
G1 X105.596 Y96.987 E.0282
G1 X106.457 Y96.727 E.0282
G1 X107.332 Y96.523 E.02817
G1 X108.219 Y96.378 E.02818
G1 X109.114 Y96.29 E.0282
G1 X110.013 Y96.262 E.0282
G1 X111.011 Y96.302 E.03132
G1 X111.983 Y96.41 E.03066
G1 X112.945 Y96.587 E.03067
G1 X113.892 Y96.831 E.03066
G1 X114.801 Y97.135 E.03005
G1 X115.269 Y97.312 E.01569
G1 X116.088 Y97.684 E.0282
G1 X116.88 Y98.109 E.02818
G1 X117.643 Y98.584 E.02818
G1 X118.373 Y99.108 E.02817
G1 X119.068 Y99.679 E.0282
G1 X119.738 Y100.31 E.02886
G1 X120.401 Y101.029 E.03067
G1 X121.012 Y101.793 E.03067
G1 X121.567 Y102.598 E.03066
G1 X122.063 Y103.44 E.03064
G1 X122.492 Y104.298 E.03008
G1 X122.697 Y104.754 E.01568
G1 X123.013 Y105.596 E.0282
G1 X123.273 Y106.457 E.0282
G1 X123.477 Y107.332 E.02817
G1 X123.622 Y108.219 E.02818
G1 X123.71 Y109.114 E.0282
G1 X123.738 Y110.013 E.0282
G1 X123.698 Y111.011 E.03132
G1 X123.59 Y111.983 E.03066
G1 X123.413 Y112.945 E.03067
G1 X123.169 Y113.892 E.03066
G1 X122.865 Y114.801 E.03005
G1 X122.688 Y115.269 E.01569
G1 X122.316 Y116.088 E.0282
G1 X121.891 Y116.88 E.02818
G1 X121.416 Y117.643 E.02818
G1 X120.892 Y118.373 E.02817
G1 X120.321 Y119.068 E.0282
G1 X119.69 Y119.738 E.02886
G1 X118.971 Y120.401 E.03067
G1 X118.207 Y121.012 E.03067
G1 X117.402 Y121.567 E.03066
G1 X116.56 Y122.063 E.03064
G1 X115.702 Y122.492 E.03008
G1 X115.246 Y122.697 E.01568
G1 X114.404 Y123.013 E.0282
G1 X113.543 Y123.273 E.0282
G1 X112.668 Y123.477 E.02817
G1 X111.781 Y123.622 E.02818
G1 X110.886 Y123.71 E.0282
G1 X109.967 Y123.738 E.02883
G1 X108.989 Y123.698 E.03069
G1 X108.017 Y123.59 E.03066
G1 X107.055 Y123.413 E.03067
G1 X106.108 Y123.169 E.03066
G1 X105.199 Y122.865 E.03005
G1 X104.731 Y122.688 E.01569
G1 X103.912 Y122.316 E.0282
G1 X103.12 Y121.891 E.02818
G1 X102.357 Y121.416 E.02818
G1 X101.627 Y120.892 E.02817
G1 X100.932 Y120.321 E.0282
G1 X100.262 Y119.69 E.02886
G1 X99.599 Y118.971 E.03067
G1 X98.988 Y118.207 E.03067
G1 X98.433 Y117.402 E.03066
G1 X97.937 Y116.56 E.03064
G1 X97.508 Y115.702 E.03008
G1 X97.303 Y115.246 E.01568
G1 X96.987 Y114.404 E.0282
G1 X96.727 Y113.543 E.0282
G1 X96.523 Y112.668 E.02817
G1 X96.378 Y111.781 E.02818
G1 X96.29 Y110.886 E.0282
G1 X96.262 Y109.967 E.02883
G1 X96.302 Y108.989 E.03069
G1 X96.41 Y108.017 E.03066
G1 X96.587 Y107.055 E.03067
G1 X96.831 Y106.108 E.03066
G1 X97.135 Y105.199 E.03005
G1 X97.312 Y104.731 E.01569
G1 X97.684 Y103.912 E.0282
G1 X98.109 Y103.12 E.02818
G1 X98.584 Y102.357 E.02818
G1 X99.108 Y101.627 E.02817
G1 X99.641 Y100.978 E.02633
;WIPE_START
G1 F7200
G1 X99.679 Y100.932 E-.01417
G1 X100.31 Y100.263 E-.21841
G1 X101.029 Y99.599 E-.23244
G1 X101.793 Y98.988 E-.23234
G1 X102.149 Y98.743 E-.10264
;WIPE_END
G1 X99.094 Y102.999 F9000
G1 E.8 F1800
G1 F1200
G1 X99.621 Y102.239 E.029
G1 X100.18 Y101.544 E.02797
G1 X100.831 Y100.841 E.03004
G1 X101.465 Y100.25 E.02718
G1 X102.12 Y99.716 E.0265
G1 X102.809 Y99.225 E.02653
G1 X103.528 Y98.78 E.02651
G1 X104.273 Y98.383 E.02647
G1 X105.043 Y98.034 E.02651
G1 X105.834 Y97.736 E.0265
G1 X106.342 Y97.567 E.01679
G1 X107.239 Y97.338 E.02903
G1 X108.149 Y97.173 E.029
G1 X109.069 Y97.074 E.02901
G1 X109.96 Y97.041 E.02796
G1 X110.86 Y97.071 E.02823
G1 X111.7 Y97.156 E.02647
G1 X112.534 Y97.296 E.02652
G1 X113.357 Y97.49 E.02651
G1 X114.166 Y97.736 E.02651
G1 X114.957 Y98.034 E.0265
G1 X115.727 Y98.383 E.02651
G1 X116.205 Y98.622 E.01676
G1 X117.001 Y99.094 E.02902
G1 X117.761 Y99.621 E.029
G1 X118.456 Y100.18 E.02797
G1 X119.159 Y100.831 E.03004
G1 X119.75 Y101.465 E.02718
G1 X120.284 Y102.12 E.0265
G1 X120.775 Y102.809 E.02653
G1 X121.22 Y103.528 E.02651
G1 X121.617 Y104.273 E.02647
G1 X121.966 Y105.043 E.02651
G1 X122.264 Y105.834 E.0265
G1 X122.433 Y106.342 E.01679
G1 X122.662 Y107.239 E.02903
G1 X122.827 Y108.149 E.029
G1 X122.926 Y109.069 E.02901
G1 X122.96 Y109.993 E.02899
G1 X122.93 Y110.859 E.02717
G1 X122.844 Y111.7 E.02651
G1 X122.704 Y112.534 E.02652
G1 X122.51 Y113.357 E.02651
G1 X122.264 Y114.166 E.02651
G1 X121.966 Y114.957 E.0265
G1 X121.617 Y115.727 E.02651
G1 X121.378 Y116.205 E.01676
G1 X120.906 Y117.001 E.02902
G1 X120.379 Y117.761 E.029
G1 X119.799 Y118.482 E.02901
G1 X119.169 Y119.159 E.029
G1 X118.535 Y119.75 E.02718
G1 X117.88 Y120.284 E.0265
G1 X117.191 Y120.775 E.02653
G1 X116.472 Y121.22 E.02651
G1 X115.727 Y121.617 E.02647
G1 X114.957 Y121.966 E.02651
G1 X114.166 Y122.264 E.0265
G1 X113.658 Y122.433 E.01679
G1 X112.761 Y122.662 E.02903
G1 X111.851 Y122.827 E.029
G1 X110.931 Y122.926 E.02901
G1 X110.007 Y122.96 E.02899
G1 X109.141 Y122.93 E.02717
G1 X108.3 Y122.844 E.02651
G1 X107.466 Y122.704 E.02652
G1 X106.643 Y122.51 E.02651
G1 X105.834 Y122.264 E.02651
G1 X105.043 Y121.966 E.0265
G1 X104.273 Y121.617 E.02651
G1 X103.795 Y121.378 E.01676
G1 X102.999 Y120.906 E.02902
G1 X102.228 Y120.371 E.02942
G1 X101.517 Y119.798 E.02863
G1 X100.841 Y119.169 E.02895
G1 X100.25 Y118.535 E.02718
G1 X99.716 Y117.88 E.0265
G1 X99.225 Y117.191 E.02653
G1 X98.78 Y116.472 E.02651
G1 X98.383 Y115.727 E.02647
G1 X98.034 Y114.957 E.02651
G1 X97.736 Y114.166 E.0265
G1 X97.567 Y113.658 E.01679
G1 X97.338 Y112.761 E.02903
G1 X97.173 Y111.851 E.029
G1 X97.074 Y110.931 E.02901
G1 X97.04 Y110.007 E.02899
G1 X97.07 Y109.141 E.02717
G1 X97.156 Y108.3 E.02651
G1 X97.296 Y107.466 E.02652
G1 X97.49 Y106.643 E.02651
G1 X97.736 Y105.834 E.02651
G1 X98.034 Y105.043 E.0265
G1 X98.383 Y104.273 E.02651
G1 X98.622 Y103.795 E.01676
G1 X99.063 Y103.051 E.02712
G1 X98.903 Y102.585 F9000
;TYPE:Perimeter
;WIDTH:0.450248
G1 F1200
G1 X99.411 Y101.875 E.02957
;WIDTH:0.448638
G1 X99.965 Y101.2 E.02946
G1 X100.576 Y100.546 E.03019
;WIDTH:0.443932
G1 X101.275 Y99.899 E.03176
;WIDTH:0.441694
G1 X102.018 Y99.303 E.03158
;WIDTH:0.439926
G1 X102.802 Y98.761 E.03146
;WIDTH:0.43863
G1 X103.622 Y98.277 E.03133
;WIDTH:0.452142
G1 X104.098 Y98.031 E.01823
;WIDTH:0.452376
G1 X104.893 Y97.671 E.02971
G1 X105.71 Y97.363 E.02973
;WIDTH:0.45214
G1 X106.546 Y97.109 E.02973
;WIDTH:0.451432
G1 X107.396 Y96.91 E.02965
;WIDTH:0.45025
G1 X108.258 Y96.767 E.02959
;WIDTH:0.448596
G1 X109.127 Y96.68 E.02946
;WIDTH:0.44647
G1 X110 Y96.652 E.02931
;WIDTH:0.44624
G1 X110.973 Y96.688 E.03265
;WIDTH:0.441692
G1 X111.92 Y96.792 E.03159
;WIDTH:0.439922
G1 X112.857 Y96.963 E.03144
;WIDTH:0.438626
G1 X113.78 Y97.201 E.03136
;WIDTH:0.452136
G1 X114.29 Y97.363 E.01821
;WIDTH:0.452376
G1 X115.107 Y97.671 E.02973
G1 X115.902 Y98.031 E.02971
;WIDTH:0.452138
G1 X116.673 Y98.442 E.02973
;WIDTH:0.451428
G1 X117.415 Y98.903 E.02967
;WIDTH:0.450248
G1 X118.125 Y99.411 E.02957
;WIDTH:0.448634
G1 X118.8 Y99.965 E.02946
G1 X119.454 Y100.576 E.03019
;WIDTH:0.443928
G1 X120.101 Y101.275 E.03176
;WIDTH:0.441692
G1 X120.697 Y102.018 E.03158
;WIDTH:0.439922
G1 X121.239 Y102.802 E.03146
;WIDTH:0.438626
G1 X121.723 Y103.622 E.03133
;WIDTH:0.452138
G1 X121.969 Y104.098 E.01823
;WIDTH:0.452372
G1 X122.329 Y104.893 E.02971
G1 X122.637 Y105.71 E.02973
;WIDTH:0.452136
G1 X122.891 Y106.546 E.02973
;WIDTH:0.451428
G1 X123.09 Y107.396 E.02965
;WIDTH:0.450244
G1 X123.233 Y108.258 E.02959
;WIDTH:0.448594
G1 X123.32 Y109.127 E.02946
;WIDTH:0.446468
G1 X123.349 Y110 E.02931
;WIDTH:0.44424
G1 X123.349 Y110.021 E.0007
;WIDTH:0.443932
G1 X123.312 Y110.973 E.03177
;WIDTH:0.44169
G1 X123.208 Y111.92 E.03159
;WIDTH:0.439922
G1 X123.037 Y112.857 E.03144
;WIDTH:0.438628
G1 X122.799 Y113.78 E.03136
;WIDTH:0.452136
G1 X122.637 Y114.29 E.01821
;WIDTH:0.452374
G1 X122.329 Y115.107 E.02973
G1 X121.969 Y115.902 E.02971
;WIDTH:0.452138
G1 X121.558 Y116.673 E.02973
;WIDTH:0.451428
G1 X121.097 Y117.415 E.02967
