; generated by PrusaSlicer 2.7.1+MacOS-arm64 on 2024-02-04 at 16:04:15 UTC

; 

; external perimeters extrusion width = 0.42mm
; perimeters extrusion width = 0.44mm
; infill extrusion width = 0.44mm
; solid infill extrusion width = 0.44mm
; top infill extrusion width = 0.40mm
; support material extrusion width = 0.36mm
; first layer extrusion width = 0.42mm

M201 X500 Y500 Z100 E5000 ; sets maximum accelerations, mm/sec^2
M203 X500 Y500 Z10 E60 ; sets maximum feedrates, mm / sec
M204 S500 T1000 ; sets acceleration (S) and retract acceleration (R), mm/sec^2
M205 X8.00 Y8.00 Z0.40 E5.00 ; sets the jerk limits, mm/sec
M205 S0 T0 ; sets the minimum extruding and travel feed rate, mm/sec

; printing object saddle-25-25.stl id:0 copy 0
; stop printing object saddle-25-25.stl id:0 copy 0

;TYPE:Custom
G90 ; use absolute coordinates
M83 ; extruder relative mode
M104 S150 ; set temporary nozzle temp to prevent oozing during homing
M140 S60 ; set final bed temp
G4 S30 ; allow partial nozzle warmup
G28 ; home all axis and restore leveling
G1 Z50 F240
G1 X2.0 Y10 F3000
M104 S210 ; set final nozzle temp
M190 S60 ; wait for bed temp to stabilize
M109 S210 ; wait for nozzle temp to stabilize
G1 Z0.28 F240
G92 E0
G1 X2.0 Y140 E10 F1500 ; prime the nozzle
G1 X2.3 Y140 F5000
G92 E0
G1 X2.3 Y10 E10 F1200 ; prime the nozzle
G92 E0
G21 ; set units to millimeters
G90 ; use absolute coordinates
M83 ; use relative distances for extrusion
; Filament gcode
M107
;LAYER_CHANGE
;Z:0.2
;HEIGHT:0.2
;BEFORE_LAYER_CHANGE
G92 E0
;0.2


G1 E-.8 F1800
G1 Z.2 F9000
;AFTER_LAYER_CHANGE
;0.2
G1 X97.963 Y97.104
G1 Z.2
G1 E.8 F1800
M204 S500
;TYPE:Skirt/Brim
;WIDTH:0.42
G1 F1200
G1 X99.035 Y96.18 E.04437
G1 X100.742 Y94.983 E.06537
G1 X101.974 Y94.289 E.04434
G1 X103.883 Y93.452 E.06536
G1 X105.229 Y93.015 E.04437
G1 X107.265 Y92.57 E.06534
G1 X108.671 Y92.407 E.04438
G1 X110.755 Y92.373 E.06535
G1 X112.165 Y92.489 E.04436
G1 X114.215 Y92.866 E.06535
G1 X115.574 Y93.259 E.04436
G1 X117.509 Y94.033 E.06534
G1 X118.764 Y94.685 E.04434
G1 X120.509 Y95.825 E.06535
G1 X121.611 Y96.713 E.04437
G1 X123.097 Y98.174 E.06534
G1 X124.003 Y99.261 E.04437
G1 X125.172 Y100.987 E.06536
G1 X125.845 Y102.232 E.04437
G1 X126.651 Y104.154 E.06535
G1 X127.065 Y105.507 E.04436
G1 X127.476 Y107.55 E.06534
G1 X127.616 Y108.958 E.04436
G1 X127.616 Y111.042 E.06534
G1 X127.476 Y112.45 E.04436
G1 X127.222 Y113.828 E.04393
G1 X126.731 Y115.611 E.05799
G1 X126.228 Y116.933 E.04435
G1 X125.297 Y118.798 E.06536
G1 X124.543 Y119.995 E.04436
G1 X123.263 Y121.64 E.06535
G1 X122.287 Y122.665 E.04438
G1 X120.708 Y124.025 E.06534
G1 X119.55 Y124.838 E.04436
G1 X117.733 Y125.86 E.06536
G1 X116.438 Y126.429 E.04435
G1 X114.455 Y127.073 E.06537
G1 X113.073 Y127.374 E.04435
G1 X111.003 Y127.615 E.06534
G1 X109.588 Y127.639 E.04437
G1 X107.511 Y127.466 E.06535
G1 X106.119 Y127.21 E.04438
G1 X104.117 Y126.632 E.06534
G1 X101.754 Y125.596 E.0809
G1 X99.973 Y124.514 E.06534
G1 X98.842 Y123.664 E.04436
G1 X97.308 Y122.252 E.06537
G1 X96.367 Y121.196 E.04435
G1 X95.142 Y119.509 E.06537
G1 X94.428 Y118.288 E.04435
G1 X93.559 Y116.393 E.06537
G1 X93.1 Y115.055 E.04435
G1 X92.622 Y113.026 E.06536
G1 X92.435 Y111.624 E.04435
G1 X92.366 Y109.541 E.06535
G1 X92.46 Y108.129 E.04437
G1 X92.803 Y106.073 E.06536
G1 X93.173 Y104.708 E.04434
G1 X93.914 Y102.76 E.06535
G1 X94.546 Y101.494 E.04437
G1 X95.657 Y99.73 E.06536
G1 X96.526 Y98.614 E.04435
G1 X97.922 Y97.147 E.06349
G1 X98.195 Y97.407 F9000
G1 F1200
G1 X98.228 Y97.373 E.00149
G1 X99.262 Y96.482 E.0428
G1 X100.948 Y95.299 E.06458
G1 X102.137 Y94.63 E.04278
G1 X104.023 Y93.802 E.06458
G1 X105.321 Y93.381 E.04279
G1 X107.333 Y92.941 E.06458
G1 X108.689 Y92.784 E.0428
G1 X110.748 Y92.75 E.06457
G1 X112.109 Y92.862 E.04282
G1 X114.134 Y93.235 E.06456
G1 X115.446 Y93.613 E.04281
G1 X117.358 Y94.378 E.06457
G1 X118.569 Y95.008 E.0428
G1 X120.293 Y96.134 E.06456
G1 X121.356 Y96.99 E.04279
G1 X122.824 Y98.434 E.06456
G1 X123.698 Y99.483 E.04281
G1 X124.853 Y101.188 E.06457
G1 X125.502 Y102.389 E.0428
G1 X126.298 Y104.288 E.06456
G1 X126.698 Y105.593 E.0428
G1 X127.104 Y107.612 E.06457
G1 X127.24 Y108.97 E.04279
G1 X127.24 Y111.03 E.06459
G1 X127.104 Y112.388 E.04279
G1 X126.855 Y113.742 E.04317
G1 X126.371 Y115.501 E.0572
G1 X125.885 Y116.776 E.04278
G1 X124.965 Y118.619 E.06459
G1 X124.238 Y119.774 E.04279
G1 X122.973 Y121.399 E.06457
G1 X122.032 Y122.388 E.0428
G1 X120.471 Y123.732 E.06459
G1 X119.354 Y124.516 E.04279
G1 X117.559 Y125.526 E.06458
G1 X116.309 Y126.074 E.04279
G1 X114.351 Y126.71 E.06455
G1 X113.017 Y127.002 E.04282
G1 X110.971 Y127.239 E.06458
G1 X109.607 Y127.262 E.04277
G1 X108.233 Y127.171 E.04318
G1 X106.43 Y126.893 E.0572
G1 X105.107 Y126.558 E.04279
G1 X103.17 Y125.857 E.06459
G1 X101.939 Y125.267 E.0428
G1 X100.179 Y124.199 E.06455
G1 X99.088 Y123.378 E.04281
G1 X97.573 Y121.983 E.06457
G1 X96.665 Y120.964 E.04279
G1 X95.455 Y119.298 E.06456
G1 X94.766 Y118.12 E.04279
G1 X93.907 Y116.248 E.06458
G1 X93.464 Y114.957 E.0428
G1 X92.992 Y112.952 E.06458
G1 X92.812 Y111.599 E.0428
G1 X92.743 Y109.541 E.06456
G1 X92.834 Y108.179 E.0428
G1 X93.173 Y106.147 E.06459
G1 X93.53 Y104.83 E.04278
G1 X94.262 Y102.905 E.06457
G1 X94.872 Y101.684 E.0428
G1 X95.97 Y99.942 E.06456
G1 X96.808 Y98.864 E.04281
G1 X98.154 Y97.45 E.06121
; printing object saddle-25-25.stl id:0 copy 0
;WIPE_START
G1 F7200
G1 X98.195 Y97.407 E-.01411
G1 X98.228 Y97.373 E-.01125
G1 X99.262 Y96.482 E-.32417
G1 X100.814 Y95.393 E-.45047
;WIPE_END
G1 X114.266 Y101.783 F9000
G1 E.8 F1800
;TYPE:Support material
G1 F1200
G1 X116.9 Y101.783 E.08259
G1 X116.9 Y103.1 E.04129
G1 X118.217 Y103.1 E.04129
G1 X118.217 Y105.734 E.08259
G1 X119.534 Y105.734 E.04129
G1 X119.534 Y114.266 E.26751
G1 X118.217 Y114.266 E.04129
G1 X118.217 Y116.9 E.08259
G1 X116.9 Y116.9 E.04129
G1 X116.9 Y118.217 E.04129
G1 X114.266 Y118.217 E.08259
G1 X114.266 Y119.534 E.04129
G1 X105.734 Y119.534 E.26751
G1 X105.734 Y118.217 E.04129
G1 X103.1 Y118.217 E.08259
G1 X103.1 Y116.9 E.04129
G1 X101.783 Y116.9 E.04129
G1 X101.783 Y114.266 E.08259
G1 X100.466 Y114.266 E.04129
G1 X100.466 Y105.734 E.26751
G1 X101.783 Y105.734 E.04129
G1 X101.783 Y103.1 E.08259
G1 X103.1 Y103.1 E.04129
G1 X103.1 Y101.783 E.04129
G1 X105.734 Y101.783 E.08259
G1 X105.734 Y100.466 E.04129
G1 X114.266 Y100.466 E.26751
G1 X114.266 Y101.727 E.03954
G1 X118.799 Y114.096 F9000
G1 F1200
G1 X118.799 Y106.074 E.25152
G1 X118.38 Y106.074 E.01314
G1 X118.38 Y113.926 E.24619
G1 X117.961 Y113.926 E.01314
G1 X117.961 Y106.074 E.24619
G1 X117.877 Y106.074 E.00263
G1 X117.877 Y103.44 E.08259
G1 X117.542 Y103.44 E.0105
G1 X117.542 Y116.56 E.41137
G1 X117.123 Y116.56 E.01314
G1 X117.123 Y103.44 E.41137
G1 X116.704 Y103.44 E.01314
G1 X116.704 Y116.56 E.41137
G1 X116.56 Y116.56 E.00452
G1 X116.56 Y117.877 E.04129
G1 X116.285 Y117.877 E.00862
G1 X116.285 Y102.123 E.49396
G1 X115.866 Y102.123 E.01314
G1 X115.866 Y117.877 E.49396
G1 X115.447 Y117.877 E.01314
G1 X115.447 Y102.123 E.49396
G1 X115.028 Y102.123 E.01314
G1 X115.028 Y117.877 E.49396
G1 X114.609 Y117.877 E.01314
G1 X114.609 Y102.123 E.49396
G1 X114.19 Y102.123 E.01314
G1 X114.19 Y117.877 E.49396
G1 X113.926 Y117.877 E.00828
G1 X113.926 Y119.194 E.04129
G1 X113.771 Y119.194 E.00486
G1 X113.771 Y100.806 E.57654
G1 X113.352 Y100.806 E.01314
G1 X113.352 Y119.194 E.57654
G1 X112.933 Y119.194 E.01314
G1 X112.933 Y100.806 E.57654
G1 X112.514 Y100.806 E.01314
G1 X112.514 Y119.194 E.57654
G1 X112.095 Y119.194 E.01314
G1 X112.095 Y100.806 E.57654
G1 X111.676 Y100.806 E.01314
G1 X111.676 Y119.194 E.57654
G1 X111.257 Y119.194 E.01314
G1 X111.257 Y100.806 E.57654
G1 X110.838 Y100.806 E.01314
G1 X110.838 Y119.194 E.57654
G1 X110.419 Y119.194 E.01314
G1 X110.419 Y100.806 E.57654
G1 X110 Y100.806 E.01314
G1 X110 Y119.194 E.57654
G1 X109.581 Y119.194 E.01314
G1 X109.581 Y100.806 E.57654
G1 X109.162 Y100.806 E.01314
G1 X109.162 Y119.194 E.57654
G1 X108.743 Y119.194 E.01314
G1 X108.743 Y100.806 E.57654
G1 X108.324 Y100.806 E.01314
G1 X108.324 Y119.194 E.57654
G1 X107.905 Y119.194 E.01314
G1 X107.905 Y100.806 E.57654
G1 X107.486 Y100.806 E.01314
G1 X107.486 Y119.194 E.57654
G1 X107.067 Y119.194 E.01314
G1 X107.067 Y100.806 E.57654
G1 X106.648 Y100.806 E.01314
G1 X106.648 Y119.194 E.57654
G1 X106.229 Y119.194 E.01314
G1 X106.229 Y100.806 E.57654
G1 X106.074 Y100.806 E.00486
G1 X106.074 Y102.123 E.04129
G1 X105.81 Y102.123 E.00828
G1 X105.81 Y117.877 E.49396
G1 X105.391 Y117.877 E.01314
G1 X105.391 Y102.123 E.49396
G1 X104.972 Y102.123 E.01314
G1 X104.972 Y117.877 E.49396
G1 X104.553 Y117.877 E.01314
G1 X104.553 Y102.123 E.49396
G1 X104.134 Y102.123 E.01314
G1 X104.134 Y117.877 E.49396
G1 X103.715 Y117.877 E.01314
G1 X103.715 Y102.123 E.49396
G1 X103.44 Y102.123 E.00862
G1 X103.44 Y103.44 E.04129
G1 X103.296 Y103.44 E.00452
G1 X103.296 Y116.56 E.41137
G1 X102.877 Y116.56 E.01314
G1 X102.877 Y103.44 E.41137
G1 X102.458 Y103.44 E.01314
G1 X102.458 Y116.56 E.41137
G1 X102.123 Y116.56 E.0105
G1 X102.123 Y113.926 E.08259
G1 X102.039 Y113.926 E.00263
G1 X102.039 Y106.074 E.24619
G1 X101.62 Y106.074 E.01314
G1 X101.62 Y113.926 E.24619
G1 X101.201 Y113.926 E.01314
G1 X101.201 Y105.904 E.25152
;WIPE_START
G1 F7200
G1 X101.201 Y109.272 E-.8
;WIPE_END
G1 X98.362 Y103.621 F9000
G1 E.8 F1800
;TYPE:External perimeter
;WIDTH:0.419315
G1 F1200
G1 X98.848 Y102.809 E.02962
;WIDTH:0.418779
G1 X99.389 Y102.033 E.02956
;WIDTH:0.418382
G1 X99.985 Y101.297 E.02957
G1 X100.63 Y100.605 E.02953
;WIDTH:0.425832
G1 X101.018 Y100.229 E.0172
;WIDTH:0.426164
G1 X101.683 Y99.657 E.02795
G1 X102.385 Y99.13 E.02797
;WIDTH:0.425915
G1 X103.12 Y98.65 E.02796
;WIDTH:0.425266
G1 X103.885 Y98.22 E.0279
;WIDTH:0.424456
G1 X104.677 Y97.841 E.02785
;WIDTH:0.423486
G1 X105.492 Y97.515 E.02778
;WIDTH:0.422352
G1 X106.327 Y97.243 E.02771
;WIDTH:0.421061
G1 X107.201 Y97.023 E.02834
;WIDTH:0.419778
G1 X108.133 Y96.858 E.02966
;WIDTH:0.419061
G1 X109.074 Y96.76 E.02959
;WIDTH:0.418843
G1 X109.988 Y96.728 E.02859
G1 X110.966 Y96.764 E.03059
;WIDTH:0.418466
G1 X111.907 Y96.866 E.02956
;WIDTH:0.42613
G1 X112.411 Y96.946 E.01626
G1 X113.269 Y97.133 E.02798
G1 X114.112 Y97.377 E.02796
;WIDTH:0.425655
G1 X114.937 Y97.677 E.02794
;WIDTH:0.424938
G1 X115.741 Y98.029 E.02788
;WIDTH:0.424005
G1 X116.394 Y98.365 E.02327
;WIDTH:0.421812
G1 X117.271 Y98.891 E.03222
G1 X117.989 Y99.393 E.0276
;WIDTH:0.420472
G1 X118.712 Y99.98 E.02924
;WIDTH:0.419407
G1 X119.403 Y100.627 E.02963
;WIDTH:0.418852
G1 X120.046 Y101.322 E.0296
;WIDTH:0.418532
G1 X120.638 Y102.06 E.02955
;WIDTH:0.418358
G1 X121.176 Y102.838 E.02953
;WIDTH:0.418585
G1 X121.646 Y103.629 E.02874
;WIDTH:0.426152
G1 X121.884 Y104.077 E.01617
G1 X122.249 Y104.875 E.02796
;WIDTH:0.425987
G1 X122.561 Y105.696 E.02798
;WIDTH:0.42522
G1 X122.818 Y106.535 E.02789
;WIDTH:0.424415
G1 X123.019 Y107.39 E.02786
;WIDTH:0.423632
G1 X123.164 Y108.255 E.02776
;WIDTH:0.422525
G1 X123.251 Y109.129 E.02772
;WIDTH:0.421251
G1 X123.281 Y110.006 E.02761
;WIDTH:0.419975
G1 X123.28 Y110.02 E.00044
;WIDTH:0.41987
G1 X123.243 Y110.966 E.02967
;WIDTH:0.419141
G1 X123.139 Y111.907 E.02962
;WIDTH:0.418663
G1 X122.969 Y112.838 E.02957
;WIDTH:0.418436
G1 X122.733 Y113.754 E.02954
G1 X122.433 Y114.651 E.02953
;WIDTH:0.425988
G1 X122.244 Y115.137 E.01661
;WIDTH:0.426153
G1 X121.878 Y115.934 E.02795
G1 X121.46 Y116.706 E.02798
;WIDTH:0.425745
G1 X120.991 Y117.448 E.02794
;WIDTH:0.42505
G1 X120.475 Y118.158 E.02789
;WIDTH:0.424196
G1 X119.913 Y118.833 E.02785
;WIDTH:0.423176
G1 X119.308 Y119.469 E.02775
;WIDTH:0.421996
G1 X118.663 Y120.064 E.02766
;WIDTH:0.420668
G1 X117.944 Y120.639 E.02892
;WIDTH:0.419516
G1 X117.164 Y121.177 E.02967
;WIDTH:0.41892
G1 X116.349 Y121.657 E.02957
;WIDTH:0.418568
G1 X115.502 Y122.079 E.02956
;WIDTH:0.418425
G1 X114.627 Y122.44 E.02955
G1 X113.741 Y122.734 E.02915
;WIDTH:0.426047
G1 X113.256 Y122.87 E.01605
G1 X112.399 Y123.057 E.02794
G1 X111.531 Y123.186 E.02796
;WIDTH:0.42547
G1 X110.656 Y123.258 E.02793
;WIDTH:0.424703
G1 X109.778 Y123.272 E.02788
;WIDTH:0.423777
G1 X108.901 Y123.229 E.02781
;WIDTH:0.422674
G1 X108.096 Y123.135 E.02559
;WIDTH:0.420098
G1 X107.162 Y122.969 E.02975
G1 X106.245 Y122.732 E.0297
;WIDTH:0.419254
G1 X105.348 Y122.43 E.02962
;WIDTH:0.418712
G1 X104.475 Y122.065 E.02957
;WIDTH:0.418408
G1 X103.63 Y121.64 E.02953
G1 X102.816 Y121.156 E.02957
;WIDTH:0.425941
G1 X102.375 Y120.863 E.01686
G1 X101.674 Y120.335 E.02795
G1 X101.009 Y119.762 E.02796
;WIDTH:0.425504
G1 X100.383 Y119.146 E.02794
;WIDTH:0.425159
G1 X99.8 Y118.49 E.02789
;WIDTH:0.424328
G1 X99.261 Y117.798 E.02782
;WIDTH:0.423333
G1 X98.768 Y117.071 E.02778
;WIDTH:0.422177
G1 X98.325 Y116.313 E.02769
;WIDTH:0.420871
G1 X97.919 Y115.497 E.02864
;WIDTH:0.419658
G1 X97.56 Y114.621 E.02966
;WIDTH:0.41899
G1 X97.264 Y113.722 E.0296
;WIDTH:0.418612
G1 X97.032 Y112.805 E.02955
;WIDTH:0.418329
G1 X96.866 Y111.873 E.02955
;WIDTH:0.418494
G1 X96.765 Y110.932 E.02956
;WIDTH:0.426096
G1 X96.736 Y110.432 E.01596
G1 X96.737 Y109.555 E.02794
G1 X96.795 Y108.679 E.02797
;WIDTH:0.425566
G1 X96.912 Y107.809 E.02793
;WIDTH:0.424824
G1 X97.085 Y106.949 E.02786
;WIDTH:0.423921
G1 X97.314 Y106.101 E.02783
;WIDTH:0.422857
G1 X97.599 Y105.271 E.02772
;WIDTH:0.421632
G1 X97.938 Y104.461 E.02765
;WIDTH:0.420302
G1 X98.335 Y103.675 E.02763
G1 X98.663 Y103.856 F9000
;WIDTH:0.422176
G1 F1200
G1 X99.095 Y103.122 E.02686
;WIDTH:0.423333
G1 X99.574 Y102.418 E.02693
;WIDTH:0.424329
G1 X100.099 Y101.746 E.02704
;WIDTH:0.425161
G1 X100.666 Y101.111 E.02706
;WIDTH:0.425832
G1 X101.274 Y100.514 E.02713
;WIDTH:0.426164
G1 X101.919 Y99.959 E.02712
G1 X102.599 Y99.447 E.02713
;WIDTH:0.425915
G1 X103.026 Y99.155 E.01647
;WIDTH:0.418408
G1 X103.817 Y98.685 E.02873
G1 X104.64 Y98.272 E.02875
;WIDTH:0.418721
G1 X105.49 Y97.918 E.02877
;WIDTH:0.41922
G1 X106.363 Y97.626 E.0288
;WIDTH:0.420097
G1 X107.255 Y97.397 E.02888
;WIDTH:0.421444
G1 X108.097 Y97.244 E.02694
;WIDTH:0.422691
G1 X108.943 Y97.148 E.02689
;WIDTH:0.423554
G1 X109.794 Y97.108 E.02696
;WIDTH:0.424887
G1 X110.646 Y97.124 E.02706
;WIDTH:0.425469
G1 X111.494 Y97.195 E.02707
;WIDTH:0.426047
G1 X112.336 Y97.321 E.02712
G1 X113.168 Y97.503 E.02713
G1 X113.986 Y97.739 E.02712
;WIDTH:0.425655
G1 X114.504 Y97.915 E.01741
;WIDTH:0.418341
G1 X115.355 Y98.266 E.02874
;WIDTH:0.419644
G1 X116.179 Y98.677 E.02884
G1 X116.971 Y99.146 E.02883
;WIDTH:0.419517
G1 X117.728 Y99.67 E.02883
;WIDTH:0.420668
G1 X118.426 Y100.23 E.02811
;WIDTH:0.421996
G1 X119.051 Y100.809 E.02685
;WIDTH:0.423247
G1 X119.637 Y101.428 E.02696
;WIDTH:0.424171
G1 X120.18 Y102.083 E.02697
;WIDTH:0.42505
G1 X120.68 Y102.773 E.02708
;WIDTH:0.425745
G1 X121.133 Y103.494 E.0271
;WIDTH:0.426152
G1 X121.538 Y104.243 E.02713
G1 X121.893 Y105.016 E.02711
;WIDTH:0.425987
G1 X122.084 Y105.487 E.01619
;WIDTH:0.41835
G1 X122.375 Y106.36 E.02873
G1 X122.604 Y107.252 E.02875
;WIDTH:0.418664
G1 X122.769 Y108.158 E.02877
;WIDTH:0.419141
G1 X122.869 Y109.073 E.02879
;WIDTH:0.41987
G1 X122.904 Y109.993 E.02886
;WIDTH:0.421251
G1 X122.873 Y110.858 E.02723
;WIDTH:0.422525
G1 X122.786 Y111.705 E.02688
;WIDTH:0.423632
G1 X122.644 Y112.545 E.02697
;WIDTH:0.424581
G1 X122.447 Y113.374 E.02704
;WIDTH:0.425368
G1 X122.197 Y114.188 E.02708
;WIDTH:0.425988
G1 X121.893 Y114.983 E.02711
;WIDTH:0.426153
G1 X121.538 Y115.757 E.02713
G1 X121.133 Y116.506 E.02713
;WIDTH:0.425745
G1 X120.856 Y116.966 E.01709
;WIDTH:0.418358
G1 X120.332 Y117.723 E.02874
;WIDTH:0.418482
G1 X119.755 Y118.44 E.02874
;WIDTH:0.41884
G1 X119.129 Y119.115 E.02878
;WIDTH:0.419404
G1 X118.456 Y119.744 E.02884
;WIDTH:0.420473
G1 X117.752 Y120.313 E.02842
;WIDTH:0.421815
G1 X117.053 Y120.799 E.02682
;WIDTH:0.423083
G1 X116.324 Y121.24 E.02693
;WIDTH:0.424034
G1 X115.568 Y121.631 E.02697
;WIDTH:0.424939
G1 X114.787 Y121.972 E.02707
;WIDTH:0.425655
G1 X113.986 Y122.261 E.0271
;WIDTH:0.426131
G1 X113.168 Y122.497 E.02713
G1 X112.336 Y122.679 E.02714
G1 X111.84 Y122.764 E.01604
;WIDTH:0.418378
G1 X110.931 Y122.863 E.02855
G1 X110.011 Y122.896 E.02874
;WIDTH:0.418588
G1 X109.091 Y122.865 E.02875
;WIDTH:0.420145
