; generated by PrusaSlicer 2.7.1+MacOS-arm64 on 2024-02-04 at 16:47:39 UTC

; 

; external perimeters extrusion width = 0.42mm
; perimeters extrusion width = 0.44mm
; infill extrusion width = 0.44mm
; solid infill extrusion width = 0.44mm
; top infill extrusion width = 0.40mm
; support material extrusion width = 0.36mm
; first layer extrusion width = 0.42mm

M201 X500 Y500 Z100 E5000 ; sets maximum accelerations, mm/sec^2
M203 X500 Y500 Z10 E60 ; sets maximum feedrates, mm / sec
M204 S500 T1000 ; sets acceleration (S) and retract acceleration (R), mm/sec^2
M205 X8.00 Y8.00 Z0.40 E5.00 ; sets the jerk limits, mm/sec
M205 S0 T0 ; sets the minimum extruding and travel feed rate, mm/sec

; printing object saddle-32-32.stl id:0 copy 0
; stop printing object saddle-32-32.stl id:0 copy 0

;TYPE:Custom
G90 ; use absolute coordinates
M83 ; extruder relative mode
M104 S150 ; set temporary nozzle temp to prevent oozing during homing
M140 S60 ; set final bed temp
G4 S30 ; allow partial nozzle warmup
G28 ; home all axis and restore leveling
G1 Z50 F240
G1 X2.0 Y10 F3000
M104 S210 ; set final nozzle temp
M190 S60 ; wait for bed temp to stabilize
M109 S210 ; wait for nozzle temp to stabilize
G1 Z0.28 F240
G92 E0
G1 X2.0 Y140 E10 F1500 ; prime the nozzle
G1 X2.3 Y140 F5000
G92 E0
G1 X2.3 Y10 E10 F1200 ; prime the nozzle
G92 E0
G21 ; set units to millimeters
G90 ; use absolute coordinates
M83 ; use relative distances for extrusion
; Filament gcode
M107
;LAYER_CHANGE
;Z:0.2
;HEIGHT:0.2
;BEFORE_LAYER_CHANGE
G92 E0
;0.2


G1 E-.8 F1800
G1 Z.2 F9000
;AFTER_LAYER_CHANGE
;0.2
G1 X95.277 Y95.354
G1 Z.2
G1 E.8 F1800
M204 S500
;TYPE:Skirt/Brim
;WIDTH:0.42
G1 F1200
G1 X96.973 Y93.827 E.07155
G1 X98.997 Y92.388 E.07787
G1 X100.248 Y91.665 E.0453
G1 X102.319 Y90.706 E.07156
G1 X103.679 Y90.219 E.04529
G1 X106.086 Y89.606 E.07788
G1 X108.347 Y89.299 E.07154
G1 X110.563 Y89.246 E.0695
G1 X112.271 Y89.358 E.05367
G1 X114.522 Y89.732 E.07155
G1 X116.91 Y90.417 E.07789
G1 X118.255 Y90.944 E.04529
G1 X120.296 Y91.965 E.07155
G1 X121.524 Y92.725 E.04528
G1 X123.351 Y94.093 E.07156
G1 X125.154 Y95.801 E.07787
G1 X126.105 Y96.889 E.04531
G1 X127.446 Y98.735 E.07154
G1 X128.309 Y100.211 E.05361
G1 X129.254 Y102.218 E.06955
G1 X129.991 Y104.378 E.07156
G1 X130.334 Y105.781 E.04529
G1 X130.674 Y108.038 E.07157
G1 X130.76 Y110.52 E.07787
G1 X130.55 Y112.995 E.07788
G1 X130.292 Y114.416 E.04528
G1 X129.619 Y116.807 E.07788
G1 X128.754 Y118.919 E.07156
G1 X128.088 Y120.201 E.0453
G1 X126.86 Y122.124 E.07154
G1 X125.292 Y124.051 E.07789
G1 X124.278 Y125.08 E.0453
G1 X122.537 Y126.555 E.07154
G1 X121.356 Y127.387 E.0453
G1 X119.199 Y128.618 E.07787
G1 X117.1 Y129.515 E.07157
G1 X115.469 Y130.028 E.05361
G1 X113.302 Y130.502 E.06955
G1 X111.033 Y130.741 E.07154
G1 X109.582 Y130.762 E.0455
G1 X107.112 Y130.565 E.07769
G1 X104.873 Y130.124 E.07155
G1 X103.487 Y129.719 E.04527
G1 X101.362 Y128.885 E.07158
G1 X100.07 Y128.239 E.04529
G1 X97.964 Y126.923 E.07786
G1 X96.18 Y125.5 E.07155
G1 X95.136 Y124.502 E.04528
G1 X93.634 Y122.783 E.07157
G1 X92.785 Y121.615 E.04527
G1 X91.615 Y119.656 E.07154
G1 X90.593 Y117.391 E.07791
G1 X90.126 Y116.024 E.04529
G1 X89.585 Y113.807 E.07155
G1 X89.37 Y112.379 E.04528
G1 X89.234 Y109.899 E.07788
G1 X89.37 Y107.621 E.07155
G1 X89.641 Y105.933 E.0536
G1 X90.186 Y103.782 E.06957
G1 X90.988 Y101.646 E.07154
G1 X91.615 Y100.344 E.04531
G1 X92.785 Y98.385 E.07154
G1 X93.634 Y97.217 E.04527
G1 X95.238 Y95.399 E.07602
; printing object saddle-32-32.stl id:0 copy 0
;WIPE_START
G1 F7200
G1 X95.277 Y95.354 E-.01414
G1 X96.973 Y93.827 E-.54201
G1 X97.81 Y93.232 E-.24385
;WIPE_END
G1 X114.266 Y101.783 F9000
G1 E.8 F1800
;TYPE:Support material
G1 F1200
G1 X116.9 Y101.783 E.08259
G1 X116.9 Y103.1 E.04129
G1 X118.217 Y103.1 E.04129
G1 X118.217 Y105.734 E.08259
G1 X119.534 Y105.734 E.04129
G1 X119.534 Y114.266 E.26751
G1 X118.217 Y114.266 E.04129
G1 X118.217 Y116.9 E.08259
G1 X116.9 Y116.9 E.04129
G1 X116.9 Y118.217 E.04129
G1 X114.266 Y118.217 E.08259
G1 X114.266 Y119.534 E.04129
G1 X105.734 Y119.534 E.26751
G1 X105.734 Y118.217 E.04129
G1 X103.1 Y118.217 E.08259
G1 X103.1 Y116.9 E.04129
G1 X101.783 Y116.9 E.04129
G1 X101.783 Y114.266 E.08259
G1 X100.466 Y114.266 E.04129
G1 X100.466 Y105.734 E.26751
G1 X101.783 Y105.734 E.04129
G1 X101.783 Y103.1 E.08259
G1 X103.1 Y103.1 E.04129
G1 X103.1 Y101.783 E.04129
G1 X105.734 Y101.783 E.08259
G1 X105.734 Y100.466 E.04129
G1 X114.266 Y100.466 E.26751
G1 X114.266 Y101.727 E.03954
G1 X118.799 Y114.096 F9000
G1 F1200
G1 X118.799 Y106.074 E.25152
G1 X118.38 Y106.074 E.01314
G1 X118.38 Y113.926 E.24619
G1 X117.961 Y113.926 E.01314
G1 X117.961 Y106.074 E.24619
G1 X117.877 Y106.074 E.00263
G1 X117.877 Y103.44 E.08259
G1 X117.542 Y103.44 E.0105
G1 X117.542 Y116.56 E.41137
G1 X117.123 Y116.56 E.01314
G1 X117.123 Y103.44 E.41137
G1 X116.704 Y103.44 E.01314
G1 X116.704 Y116.56 E.41137
G1 X116.56 Y116.56 E.00452
G1 X116.56 Y117.877 E.04129
G1 X116.285 Y117.877 E.00862
G1 X116.285 Y102.123 E.49396
G1 X115.866 Y102.123 E.01314
G1 X115.866 Y117.877 E.49396
G1 X115.447 Y117.877 E.01314
G1 X115.447 Y102.123 E.49396
G1 X115.028 Y102.123 E.01314
G1 X115.028 Y117.877 E.49396
G1 X114.609 Y117.877 E.01314
G1 X114.609 Y102.123 E.49396
G1 X114.19 Y102.123 E.01314
G1 X114.19 Y117.877 E.49396
G1 X113.926 Y117.877 E.00828
G1 X113.926 Y119.194 E.04129
G1 X113.771 Y119.194 E.00486
G1 X113.771 Y100.806 E.57654
G1 X113.352 Y100.806 E.01314
G1 X113.352 Y119.194 E.57654
G1 X112.933 Y119.194 E.01314
G1 X112.933 Y100.806 E.57654
G1 X112.514 Y100.806 E.01314
G1 X112.514 Y119.194 E.57654
G1 X112.095 Y119.194 E.01314
G1 X112.095 Y100.806 E.57654
G1 X111.676 Y100.806 E.01314
G1 X111.676 Y119.194 E.57654
G1 X111.257 Y119.194 E.01314
G1 X111.257 Y100.806 E.57654
G1 X110.838 Y100.806 E.01314
G1 X110.838 Y119.194 E.57654
G1 X110.419 Y119.194 E.01314
G1 X110.419 Y100.806 E.57654
G1 X110 Y100.806 E.01314
G1 X110 Y119.194 E.57654
G1 X109.581 Y119.194 E.01314
G1 X109.581 Y100.806 E.57654
G1 X109.162 Y100.806 E.01314
G1 X109.162 Y119.194 E.57654
G1 X108.743 Y119.194 E.01314
G1 X108.743 Y100.806 E.57654
G1 X108.324 Y100.806 E.01314
G1 X108.324 Y119.194 E.57654
G1 X107.905 Y119.194 E.01314
G1 X107.905 Y100.806 E.57654
G1 X107.486 Y100.806 E.01314
G1 X107.486 Y119.194 E.57654
G1 X107.067 Y119.194 E.01314
G1 X107.067 Y100.806 E.57654
G1 X106.648 Y100.806 E.01314
G1 X106.648 Y119.194 E.57654
G1 X106.229 Y119.194 E.01314
G1 X106.229 Y100.806 E.57654
G1 X106.074 Y100.806 E.00486
G1 X106.074 Y102.123 E.04129
G1 X105.81 Y102.123 E.00828
G1 X105.81 Y117.877 E.49396
G1 X105.391 Y117.877 E.01314
G1 X105.391 Y102.123 E.49396
G1 X104.972 Y102.123 E.01314
G1 X104.972 Y117.877 E.49396
G1 X104.553 Y117.877 E.01314
G1 X104.553 Y102.123 E.49396
G1 X104.134 Y102.123 E.01314
G1 X104.134 Y117.877 E.49396
G1 X103.715 Y117.877 E.01314
G1 X103.715 Y102.123 E.49396
G1 X103.44 Y102.123 E.00862
G1 X103.44 Y103.44 E.04129
G1 X103.296 Y103.44 E.00452
G1 X103.296 Y116.56 E.41137
G1 X102.877 Y116.56 E.01314
G1 X102.877 Y103.44 E.41137
G1 X102.458 Y103.44 E.01314
G1 X102.458 Y116.56 E.41137
G1 X102.123 Y116.56 E.0105
G1 X102.123 Y113.926 E.08259
G1 X102.039 Y113.926 E.00263
G1 X102.039 Y106.074 E.24619
G1 X101.62 Y106.074 E.01314
G1 X101.62 Y113.926 E.24619
G1 X101.201 Y113.926 E.01314
G1 X101.201 Y105.904 E.25152
;WIPE_START
G1 F7200
G1 X101.201 Y109.272 E-.8
;WIPE_END
G1 X94.388 Y103.804 F9000
G1 E.8 F1800
;TYPE:External perimeter
;WIDTH:0.418315
G1 F1200
G1 X94.808 Y102.836 E.03294
;WIDTH:0.418186
G1 X95.288 Y101.897 E.03291
;WIDTH:0.418016
G1 X95.82 Y100.999 E.03255
;WIDTH:0.4255
G1 X96.413 Y100.128 E.03352
;WIDTH:0.425379
G1 X97.029 Y99.331 E.03203
;WIDTH:0.425892
G1 X97.353 Y98.943 E.0161
G1 X98.037 Y98.206 E.03202
;WIDTH:0.425301
G1 X98.763 Y97.512 E.03193
;WIDTH:0.425069
G1 X99.53 Y96.862 E.03195
;WIDTH:0.424606
G1 X100.335 Y96.259 E.03192
;WIDTH:0.423996
G1 X101.173 Y95.706 E.03181
;WIDTH:0.423319
G1 X102.044 Y95.203 E.03181
;WIDTH:0.422585
G1 X102.943 Y94.753 E.03174
;WIDTH:0.421768
G1 X103.867 Y94.358 E.03166
;WIDTH:0.420868
G1 X104.825 Y94.015 E.03198
;WIDTH:0.419905
G1 X105.839 Y93.723 E.03308
;WIDTH:0.419453
G1 X106.868 Y93.495 E.033
;WIDTH:0.419069
G1 X107.91 Y93.332 E.03299
;WIDTH:0.418765
G1 X108.962 Y93.236 E.03301
;WIDTH:0.41936
G1 X109.98 Y93.202 E.03188
G1 X111.069 Y93.238 E.03411
;WIDTH:0.418335
G1 X112.119 Y93.338 E.03292
;WIDTH:0.418187
G1 X113.16 Y93.505 E.0329
;WIDTH:0.418018
G1 X114.178 Y93.733 E.03254
;WIDTH:0.425429
G1 X114.711 Y93.875 E.01754
G1 X115.672 Y94.188 E.03215
G1 X116.607 Y94.555 E.03195
G1 X117.519 Y94.978 E.03198
;WIDTH:0.4253
G1 X118.405 Y95.454 E.03198
;WIDTH:0.425067
G1 X119.259 Y95.983 E.03192
;WIDTH:0.424606
G1 X120.081 Y96.561 E.03189
;WIDTH:0.423996
G1 X120.867 Y97.188 E.03186
;WIDTH:0.423317
G1 X121.614 Y97.861 E.0318
;WIDTH:0.42257
G1 X122.32 Y98.577 E.03174
;WIDTH:0.421753
G1 X122.981 Y99.334 E.03166
;WIDTH:0.420865
G1 X123.603 Y100.139 E.03197
;WIDTH:0.419902
G1 X124.194 Y101.012 E.03305
;WIDTH:0.419447
G1 X124.729 Y101.921 E.03302
;WIDTH:0.419068
G1 X125.206 Y102.862 E.033
;WIDTH:0.418758
G1 X125.623 Y103.831 E.03297
;WIDTH:0.418439
G1 X125.979 Y104.823 E.03291
G1 X126.272 Y105.837 E.03296
;WIDTH:0.418313
G1 X126.501 Y106.866 E.03291
;WIDTH:0.418189
G1 X126.665 Y107.908 E.03291
;WIDTH:0.418016
G1 X126.763 Y108.958 E.03289
;WIDTH:0.425499
G1 X126.791 Y109.503 E.01736
;WIDTH:0.425431
G1 X126.791 Y110.508 E.03196
G1 X126.731 Y111.512 E.03199
G1 X126.61 Y112.509 E.03194
;WIDTH:0.425298
G1 X126.431 Y113.498 E.03196
;WIDTH:0.425066
G1 X126.192 Y114.475 E.03196
;WIDTH:0.424608
G1 X125.896 Y115.435 E.03188
;WIDTH:0.423997
G1 X125.543 Y116.376 E.03185
;WIDTH:0.423336
G1 X125.134 Y117.294 E.03179
;WIDTH:0.422588
G1 X124.671 Y118.187 E.03176
;WIDTH:0.421756
G1 X124.156 Y119.05 E.03166
;WIDTH:0.420864
G1 X123.582 Y119.89 E.03197
;WIDTH:0.419904
G1 X122.934 Y120.722 E.03306
;WIDTH:0.419438
G1 X122.235 Y121.512 E.03302
;WIDTH:0.419083
G1 X121.487 Y122.256 E.033
;WIDTH:0.418765
G1 X120.695 Y122.952 E.03295
;WIDTH:0.418544
G1 X119.861 Y123.597 E.03293
;WIDTH:0.418312
G1 X118.988 Y124.189 E.03292
G1 X118.08 Y124.725 E.03291
;WIDTH:0.418186
G1 X117.139 Y125.202 E.03292
;WIDTH:0.418018
G1 X116.181 Y125.616 E.03255
;WIDTH:0.425427
G1 X115.667 Y125.814 E.01752
G1 X114.705 Y126.126 E.03217
G1 X113.733 Y126.379 E.03195
G1 X112.746 Y126.573 E.03199
;WIDTH:0.425298
G1 X111.75 Y126.708 E.03196
;WIDTH:0.42507
G1 X110.748 Y126.783 E.03193
;WIDTH:0.424623
G1 X109.735 Y126.797 E.03215
;WIDTH:0.424095
G1 X108.739 Y126.752 E.0316
;WIDTH:0.423301
G1 X107.739 Y126.647 E.0318
;WIDTH:0.422569
G1 X106.748 Y126.483 E.03171
;WIDTH:0.421751
G1 X105.768 Y126.259 E.03167
;WIDTH:0.420863
G1 X104.791 Y125.974 E.03198
;WIDTH:0.419903
G1 X103.799 Y125.614 E.03308
;WIDTH:0.419455
G1 X102.832 Y125.193 E.03302
;WIDTH:0.419069
G1 X101.893 Y124.713 E.03298
;WIDTH:0.418767
G1 X100.987 Y124.174 E.03295
;WIDTH:0.418543
G1 X100.115 Y123.58 E.03295
;WIDTH:0.418314
G1 X99.283 Y122.933 E.0329
G1 X98.493 Y122.234 E.03293
;WIDTH:0.418187
G1 X97.748 Y121.488 E.0329
;WIDTH:0.418016
G1 X97.058 Y120.704 E.03257
;WIDTH:0.425429
G1 X96.711 Y120.276 E.01752
G1 X96.117 Y119.458 E.03215
G1 X95.576 Y118.611 E.03197
G1 X95.087 Y117.733 E.03196
;WIDTH:0.425302
G1 X94.651 Y116.828 E.03194
;WIDTH:0.425091
G1 X94.27 Y115.898 E.03194
;WIDTH:0.424282
G1 X93.945 Y114.946 E.0319
;WIDTH:0.423999
G1 X93.678 Y113.977 E.03185
;WIDTH:0.423317
G1 X93.469 Y112.994 E.03179
;WIDTH:0.42257
G1 X93.319 Y112 E.03173
;WIDTH:0.421755
G1 X93.228 Y110.999 E.03166
;WIDTH:0.420867
G1 X93.198 Y109.982 E.03197
;WIDTH:0.419906
G1 X93.234 Y108.928 E.03306
;WIDTH:0.41945
G1 X93.335 Y107.878 E.03303
;WIDTH:0.419068
G1 X93.502 Y106.837 E.03298
;WIDTH:0.418759
G1 X93.734 Y105.808 E.03296
;WIDTH:0.418441
G1 X94.03 Y104.795 E.03295
G1 X94.368 Y103.86 E.03104
G1 X94.63 Y104.229 F9000
;WIDTH:0.425067
G1 F1200
G1 X95.003 Y103.321 E.03119
;WIDTH:0.4253
G1 X95.429 Y102.437 E.0312
;WIDTH:0.425429
G1 X95.908 Y101.579 E.03125
G1 X96.437 Y100.752 E.03122
G1 X97.013 Y99.958 E.0312
G1 X97.323 Y99.565 E.01592
;WIDTH:0.418159
G1 X98.026 Y98.764 E.03325
G1 X98.755 Y98.034 E.03219
;WIDTH:0.418313
G1 X99.528 Y97.351 E.0322
G1 X100.343 Y96.718 E.03221
;WIDTH:0.418545
G1 X101.196 Y96.138 E.03222
;WIDTH:0.418777
G1 X102.083 Y95.612 E.03223
;WIDTH:0.419085
G1 X103.002 Y95.143 E.03227
;WIDTH:0.419452
G1 X103.948 Y94.732 E.03229
;WIDTH:0.419903
G1 X104.919 Y94.381 E.03236
;WIDTH:0.42087
G1 X105.873 Y94.103 E.03123
;WIDTH:0.42175
G1 X106.831 Y93.887 E.03093
;WIDTH:0.422569
G1 X107.8 Y93.727 E.031
;WIDTH:0.423294
G1 X108.775 Y93.626 E.031
G1 X109.916 Y93.579 E.03612
;WIDTH:0.42484
G1 X110.739 Y93.599 E.02614
;WIDTH:0.42507
G1 X111.718 Y93.673 E.0312
;WIDTH:0.425298
G1 X112.691 Y93.805 E.03122
;WIDTH:0.425429
G1 X113.654 Y93.995 E.03122
G1 X114.604 Y94.243 E.03123
G1 X115.537 Y94.546 E.0312
G1 X116.039 Y94.731 E.01702
;WIDTH:0.418016
G1 X116.986 Y95.14 E.03217
;WIDTH:0.418187
G1 X117.906 Y95.608 E.03221
;WIDTH:0.418312
G1 X118.794 Y96.132 E.03218
G1 X119.647 Y96.711 E.03218
;WIDTH:0.418545
G1 X120.463 Y97.343 E.03224
;WIDTH:0.418765
G1 X121.237 Y98.024 E.03222
;WIDTH:0.419071
G1 X121.968 Y98.753 E.03229
;WIDTH:0.419449
G1 X122.651 Y99.526 E.0323
;WIDTH:0.419904
G1 X123.284 Y100.341 E.03235
;WIDTH:0.420864
G1 X123.843 Y101.163 E.03124
;WIDTH:0.421752
G1 X124.345 Y102.007 E.03093
;WIDTH:0.422569
G1 X124.796 Y102.879 E.03099
;WIDTH:0.423281
G1 X125.194 Y103.777 E.03107
;WIDTH:0.424047
G1 X125.538 Y104.696 E.0311
;WIDTH:0.424609
G1 X125.827 Y105.635 E.03118
;WIDTH:0.425067
G1 X126.059 Y106.589 E.0312
;WIDTH:0.4253
G1 X126.233 Y107.555 E.03121
;WIDTH:0.425431
G1 X126.35 Y108.529 E.0312
G1 X126.409 Y109.509 E.03123
G1 X126.409 Y110.491 E.03123
G1 X126.388 Y111.025 E.017
;WIDTH:0.418017
G1 X126.292 Y112.052 E.03217
;WIDTH:0.418185
G1 X126.131 Y113.071 E.03219
;WIDTH:0.418312
G1 X125.907 Y114.078 E.0322
G1 X125.619 Y115.069 E.03221
;WIDTH:0.418557
G1 X125.271 Y116.04 E.03222
;WIDTH:0.418786
G1 X124.862 Y116.987 E.03224
;WIDTH:0.419073
G1 X124.395 Y117.907 E.03227
;WIDTH:0.419449
G1 X123.87 Y118.795 E.0323
;WIDTH:0.419902
G1 X123.291 Y119.649 E.03234
;WIDTH:0.420853
G1 X122.682 Y120.435 E.03125
;WIDTH:0.421769
G1 X122.035 Y121.173 E.03092
;WIDTH:0.42257
G1 X121.345 Y121.872 E.03101
;WIDTH:0.423317
G1 X120.614 Y122.528 E.03107
;WIDTH:0.423995
G1 X119.846 Y123.139 E.0311
;WIDTH:0.424606
G1 X119.042 Y123.703 E.03117
;WIDTH:0.425066
G1 X118.207 Y124.219 E.03119
;WIDTH:0.425302
G1 X117.342 Y124.683 E.03121
;WIDTH:0.42543
G1 X116.451 Y125.096 E.03124
G1 X115.537 Y125.454 E.03122
G1 X114.604 Y125.757 E.0312
G1 X114.089 Y125.903 E.01703
;WIDTH:0.418016
G1 X113.083 Y126.128 E.03215
;WIDTH:0.418188
G1 X112.064 Y126.29 E.0322
;WIDTH:0.418321
G1 X111.037 Y126.388 E.0322
G1 X110.006 Y126.421 E.0322
;WIDTH:0.418553
G1 X108.975 Y126.39 E.03222
;WIDTH:0.418767
G1 X107.948 Y126.294 E.03224
;WIDTH:0.419069
G1 X106.929 Y126.133 E.03227
;WIDTH:0.419449
G1 X105.921 Y125.909 E.03233
;WIDTH:0.419904
G1 X104.93 Y125.623 E.03233
;WIDTH:0.42087
G1 X103.995 Y125.286 E.03123
;WIDTH:0.421754
G1 X103.093 Y124.899 E.03092
;WIDTH:0.422572
G1 X102.215 Y124.458 E.03102
;WIDTH:0.423319
G1 X101.365 Y123.966 E.03106
;WIDTH:0.423997
G1 X100.343 Y123.282 E.03897
;WIDTH:0.424606
G1 X99.762 Y122.834 E.02328
;WIDTH:0.425069
G1 X99.013 Y122.199 E.0312
;WIDTH:0.425302
G1 X98.304 Y121.52 E.03121
;WIDTH:0.42543
G1 X97.637 Y120.8 E.03122
G1 X97.014 Y120.042 E.03121
G1 X96.437 Y119.248 E.03122
G1 X96.139 Y118.803 E.01703
;WIDTH:0.418017
G1 X95.614 Y117.916 E.03215
;WIDTH:0.418203
G1 X95.145 Y116.997 E.0322
G1 X94.734 Y116.05 E.03221
;WIDTH:0.418315
G1 X94.384 Y115.08 E.03219
;WIDTH:0.418544
G1 X94.096 Y114.09 E.0322
;WIDTH:0.418766
G1 X93.87 Y113.083 E.03225
;WIDTH:0.419068
G1 X93.707 Y112.064 E.03228
;WIDTH:0.41945
G1 X93.609 Y111.037 E.0323
;WIDTH:0.419906
G1 X93.575 Y110.006 E.03234
;WIDTH:0.420867
G1 X93.606 Y109.013 E.03122
;WIDTH:0.421754
G1 X93.696 Y108.035 E.03094
;WIDTH:0.422568
G1 X93.844 Y107.064 E.03101
;WIDTH:0.423281
G1 X94.049 Y106.104 E.03105
;WIDTH:0.424051
